X: 299
T: the Rambling Laborer   #2
N: Variant of The Girl I left Behind Me
R: air, march
%S: s:2 b:14(7+7)
B: O'Neill's 1850 #299
Q: "Moderate"
O: F.O'Neill
Z: 1997 by John Chambers <jc@trillian.mit.edu>
M: 2/4
L: 1/8
K: G
"^A"[|] e | dB c/B/A/G/ | AG E(E/F/) |1 GG G/A/B/c/ | d2 B :|2 FA D(E/F/) | G2 G "^B"[| d | Bd ef |
| gd BG | Bd ef | g2 fg || ed BG | B/A/G/F/ E(F/G/) | FA D(E/F/) | G2 G |]
